images/logo.svg

<svg width="80" height="67" viewBox="0 0 80 67" fill="none" xmlns="http://www.w3.org/2000/svg">
<path d="M0.0649414 0.0468807L31.714 0.0420124L42.0131 0.0444465C43.9119 0.0445988 45.8232 0.0907211 47.7205 0.0208529L47.8581 0L47.9103 0.0735217C47.6837 0.449196 47.2351 0.792295 46.9236 1.10997L43.8032 4.2373C41.56 6.47095 39.382 8.77904 37.125 10.9952C34.359 11.0713 31.5787 11.0157 28.8106 11.0154L13.6458 11.0121C13.7109 14.052 13.62 17.0987 13.6565 20.14C19.6346 20.2441 25.6333 20.1586 31.6132 20.142C31.6346 23.6873 31.6356 27.2327 31.6161 30.7781C29.5129 30.6222 27.3056 30.7654 25.1895 30.761C21.3525 30.7531 17.501 30.6796 13.6662 30.8001C13.658 34.0299 13.7424 37.298 13.6312 40.5243C15.2465 40.5876 16.8886 40.4931 18.507 40.4837C19.9696 40.4753 21.432 40.55 22.895 40.5368C24.6331 40.5211 33.7669 40.2316 34.681 40.6263C35.4191 40.945 36.1326 41.7246 36.7787 42.2141C39.8698 44.5561 42.9017 46.9822 45.9658 49.36C46.8185 50.0118 47.6596 50.6781 48.4892 51.3591C46.7401 51.2058 44.8911 51.3172 43.1331 51.3161L33.0168 51.3094L0.066157 51.3291L0.0649414 0.0468807Z" fill="white"/>
<path d="M66.4386 19.0159C66.5396 12.6794 66.355 6.33619 66.4623 0C67.8064 0.213682 69.502 0.0643806 70.8837 0.0639241L79.9895 0.0584434L79.9813 51.3591C78.4028 51.2629 76.7865 51.3283 75.2024 51.3269L66.4544 51.3508C66.3699 44.3594 66.3844 37.3384 66.4655 30.3474L50.1284 30.3471C50.1718 34.0476 50.1388 37.752 50.138 41.453L50.1417 47.367C45.6921 43.7741 41.1074 40.3246 36.5966 36.8067C36.6006 30.2579 36.4935 23.6895 36.6062 17.1424C37.7997 15.8775 39.073 14.6704 40.3039 13.4405C43.5865 10.1607 46.9152 6.91438 50.1473 3.58526C50.0219 7.2139 50.1357 10.8839 50.1383 14.5168C50.1394 15.9825 50.2473 17.5496 50.0883 19.0042L66.4386 19.0159Z" fill="white"/>
<path d="M12.3966 64.4556C13.2728 65.0333 14.108 65.3097 15.1699 65.2536C15.6737 65.2269 16.0635 65.0974 16.3959 64.7025C16.5558 64.5125 16.7391 64.2511 16.6796 63.9895C16.4806 63.1128 13.7155 62.774 12.9685 62.3178C12.5701 62.0746 12.2492 61.7193 12.1449 61.2549C12.0297 60.7422 12.1815 60.0943 12.4812 59.6666C12.9564 58.9888 13.8182 58.7975 14.5855 58.6696C15.5705 58.6106 16.4193 58.8348 17.3401 59.165C17.2086 59.4915 17.1048 59.8345 16.9897 60.1675C16.5027 59.8607 16.0986 59.7539 15.5368 59.6764C14.8902 59.5872 14.2294 59.5408 13.6899 59.9723C13.4209 60.1873 13.1772 60.4199 13.1349 60.7757C13.3849 61.8572 16.1377 62.0735 17.0461 62.7793C17.4055 63.0585 17.6785 63.4447 17.7197 63.9073C17.7662 64.4314 17.4984 65.0753 17.1442 65.454C16.5355 66.105 15.4684 66.1811 14.6325 66.1852C13.6178 66.1624 12.8459 65.8627 11.9377 65.4343L12.3966 64.4556Z" fill="black"/>
<path d="M68.3086 66.1853C67.2451 66.2056 66.2826 66.0881 65.4064 65.4096C65.358 65.3719 65.3105 65.333 65.264 65.2928C65.2174 65.2527 65.1719 65.2115 65.1273 65.1692C65.0829 65.1268 65.0395 65.0834 64.9972 65.0389C64.9549 64.9943 64.9137 64.9488 64.8737 64.9021C64.8336 64.8556 64.7947 64.808 64.7571 64.7595C64.7194 64.711 64.6829 64.6616 64.6477 64.6113C64.6125 64.5609 64.5786 64.5097 64.5459 64.4577C64.5132 64.4057 64.4818 64.3529 64.4518 64.2993C64.4217 64.2457 64.393 64.1914 64.3658 64.1365C64.3384 64.0814 64.3124 64.0257 64.2878 63.9695C64.2633 63.9131 64.2401 63.8562 64.2185 63.7989C64.1967 63.7414 64.1764 63.6834 64.1575 63.6249C64.1388 63.5665 64.1214 63.5075 64.1055 63.4482C64.0895 63.3889 64.0751 63.3292 64.0623 63.2691C64.0494 63.2091 64.0379 63.1487 64.028 63.0881C64.0181 63.0276 64.0097 62.9667 64.0027 62.9056C63.8816 61.8761 64.1792 60.8001 64.8496 60.0035C65.5779 59.1376 66.5604 58.7907 67.6495 58.6809C68.4399 58.615 69.3914 58.8516 70.0586 59.2643C70.11 59.2958 70.1605 59.3286 70.2103 59.3627C70.2599 59.3968 70.3087 59.4321 70.3567 59.4686C70.4046 59.5051 70.4516 59.5428 70.4977 59.5817C70.5437 59.6207 70.5887 59.6607 70.6326 59.702C70.6766 59.7431 70.7196 59.7853 70.7615 59.8286C70.8034 59.872 70.8441 59.9163 70.8839 59.9618C70.9235 60.0071 70.9619 60.0535 70.9993 60.1008C71.0366 60.1481 71.0727 60.1964 71.1076 60.2455C71.1424 60.2947 71.176 60.3447 71.2084 60.3955C71.2408 60.4464 71.2719 60.498 71.3017 60.5504C71.3314 60.6028 71.3597 60.6559 71.3868 60.7097C71.4139 60.7635 71.4396 60.8181 71.464 60.8732C71.4884 60.9283 71.5113 60.9839 71.5329 61.0402C71.5544 61.0966 71.5745 61.1534 71.5932 61.2107C71.6119 61.2679 71.6291 61.3257 71.6448 61.3838C71.6606 61.442 71.6749 61.5005 71.6877 61.5594C71.7019 61.6227 71.7144 61.6863 71.7253 61.7503C71.7363 61.8143 71.7456 61.8785 71.7533 61.9429C71.7609 62.0074 71.767 62.072 71.7715 62.1367C71.7759 62.2015 71.7787 62.2663 71.7799 62.3312C71.781 62.3961 71.7806 62.461 71.7786 62.5258C71.7765 62.5907 71.7727 62.6554 71.7673 62.7201C71.762 62.7848 71.755 62.8493 71.7464 62.9136C71.7378 62.9779 71.7275 63.042 71.7157 63.1057C71.7039 63.1696 71.6904 63.2331 71.6752 63.2962C71.6602 63.3593 71.6436 63.422 71.6254 63.4843C71.6072 63.5466 71.5874 63.6083 71.5662 63.6696C71.5448 63.731 71.5219 63.7917 71.4975 63.8518C71.4731 63.912 71.4471 63.9715 71.4198 64.0303C71.3924 64.0891 71.3636 64.1473 71.3333 64.2046C71.303 64.262 71.2712 64.3186 71.238 64.3743C71.2048 64.4301 71.1703 64.485 71.1344 64.5391C70.4345 65.5743 69.4839 65.9629 68.3086 66.1853ZM67.609 59.6496C66.7918 59.7646 66.1418 60.0468 65.6417 60.7402C65.6133 60.7802 65.586 60.821 65.5596 60.8624C65.5332 60.9039 65.5079 60.946 65.4836 60.9886C65.4593 61.0313 65.4362 61.0746 65.4141 61.1185C65.392 61.1624 65.3711 61.2068 65.3512 61.2517C65.3314 61.2966 65.3126 61.342 65.2949 61.3879C65.2774 61.4337 65.261 61.48 65.2457 61.5266C65.2304 61.5733 65.2163 61.6203 65.2035 61.6677C65.1905 61.7151 65.1788 61.7628 65.1683 61.8108C65.1577 61.8588 65.1485 61.907 65.1404 61.9554C65.1323 62.0038 65.1254 62.0524 65.1198 62.1012C65.1141 62.15 65.1096 62.1989 65.1064 62.2479C65.1032 62.2969 65.1013 62.346 65.1006 62.395C65.0998 62.4442 65.1002 62.4933 65.1019 62.5423C65.1036 62.5915 65.1066 62.6405 65.1108 62.6894C65.115 62.7383 65.1204 62.7871 65.127 62.8358C65.1337 62.8845 65.1415 62.9329 65.1505 62.9812C65.2802 63.6954 65.6783 64.3518 66.2781 64.7663C66.8963 65.1934 67.5988 65.2847 68.3303 65.2069C69.0931 65.053 69.7526 64.653 70.1728 63.9871C70.1992 63.9451 70.2245 63.9026 70.2487 63.8593C70.2729 63.8161 70.2961 63.7723 70.3182 63.7279C70.3401 63.6835 70.3611 63.6386 70.3809 63.5932C70.4007 63.5478 70.4193 63.5019 70.4369 63.4555C70.4544 63.4092 70.4708 63.3625 70.4859 63.3153C70.5012 63.2681 70.5152 63.2205 70.5281 63.1727C70.5408 63.1249 70.5524 63.0767 70.5628 63.0283C70.5732 62.9798 70.5825 62.9311 70.5905 62.8822C70.5985 62.8333 70.6053 62.7843 70.6108 62.735C70.6164 62.6858 70.6208 62.6364 70.6239 62.587C70.627 62.5375 70.6288 62.488 70.6294 62.4385C70.6301 62.3889 70.6295 62.3394 70.6277 62.2898C70.6258 62.2404 70.6228 62.191 70.6185 62.1415C70.6142 62.0922 70.6086 62.043 70.6019 61.9939C70.5952 61.9448 70.5872 61.8959 70.578 61.8472C70.5689 61.7985 70.5585 61.75 70.5469 61.7019C70.5254 61.6139 70.4996 61.5273 70.4694 61.4419C70.4393 61.3566 70.405 61.273 70.3665 61.1911C70.3281 61.1092 70.2856 61.0293 70.2392 60.9516C70.1928 60.8739 70.1427 60.7986 70.0887 60.7259C70.0349 60.6532 69.9775 60.5833 69.9168 60.5162C69.8559 60.4492 69.7918 60.3854 69.7246 60.3248C69.6574 60.2641 69.5874 60.207 69.5146 60.1533C69.4417 60.0995 69.3663 60.0496 69.2885 60.0035C68.7988 59.7176 68.172 59.6063 67.609 59.6496Z" fill="black"/>
<path d="M18.5889 59.7008C18.5768 59.4321 18.5414 59.1523 18.6249 58.8934C18.8333 58.7382 18.995 58.7735 19.2506 58.7617C21.0595 58.7656 22.8717 58.7984 24.6801 58.7662L24.6191 59.7069L22.1898 59.6962L22.1928 63.8976L22.1946 66.1004L21.0727 66.101C21.0837 63.9666 21.0828 61.8322 21.0702 59.6978L18.5889 59.7008Z" fill="black"/>
<path d="M26.1211 58.7744L28.8995 58.7617C29.3021 58.7694 29.7296 58.7819 30.1213 58.8818C30.8329 59.0635 31.4472 59.4794 31.7974 60.1353C31.8355 60.2083 31.87 60.283 31.9009 60.3594C31.9319 60.4357 31.9591 60.5133 31.9825 60.5923C32.0058 60.6712 32.0254 60.7511 32.041 60.8321C32.0567 60.9129 32.0684 60.9943 32.0762 61.0762C32.0839 61.1583 32.0877 61.2405 32.0876 61.3228C32.0874 61.4052 32.0833 61.4873 32.0752 61.5693C32.067 61.6512 32.0549 61.7326 32.0389 61.8133C32.023 61.8941 32.0031 61.974 31.9793 62.0528C31.7369 62.8467 31.2019 63.2715 30.5004 63.6374C31.0131 64.5046 31.6033 65.3144 32.2182 66.1109L31.0608 66.0846C30.7226 65.6875 30.4241 65.2482 30.1154 64.8273L29.38 63.8471C28.6799 63.8775 27.9736 63.8501 27.2728 63.8418L27.248 66.1028L26.1285 66.1005L26.1211 58.7744ZM27.4458 59.6568L27.2978 59.736C27.1276 60.7332 27.2532 61.9239 27.2606 62.9439C28.2986 62.968 29.4578 63.1352 30.376 62.5624C30.7742 62.1562 30.9698 61.8541 30.9567 61.2708C30.9471 60.8494 30.8368 60.4531 30.5111 60.1665C29.7849 59.5271 28.3657 59.665 27.4458 59.6568Z" fill="black"/>
<path d="M34.0429 66.1064C34.0434 65.2303 33.9569 59.1145 34.0843 58.7539L35.1365 58.7906C35.1364 59.6798 35.273 65.8084 35.0597 66.1025L34.0429 66.1064Z" fill="black"/>
<path d="M45.7442 58.7884L46.7454 58.7708C46.9105 58.815 46.8596 59.2361 46.8619 59.3748C46.8823 60.6539 46.5303 63.7294 47.4312 64.6815C47.8174 65.0895 48.3566 65.2227 48.9018 65.2312C49.4149 65.2392 49.9165 65.0984 50.2783 64.7184C51.2337 63.7152 50.8795 60.1883 50.8645 58.7539L51.991 58.7996L51.9982 60.4361C51.9769 61.9033 52.2994 64.0881 51.2467 65.2728C50.6821 65.9083 49.8139 66.1777 48.9841 66.1971C48.1084 66.2177 47.1894 65.966 46.5536 65.3375C46.4811 65.2657 46.4134 65.1898 46.3505 65.1095C46.2875 65.0294 46.2298 64.9455 46.1775 64.858C46.125 64.7705 46.0783 64.6801 46.0373 64.5869C45.9962 64.4935 45.9612 64.3979 45.9322 64.3001C45.542 62.979 45.7404 60.2428 45.7442 58.7884Z" fill="black"/>
<path d="M73.7209 66.1022C73.6672 64.6033 73.7048 63.0894 73.7047 61.5886C73.7045 60.6692 73.6273 59.6664 73.7534 58.758C74.0465 58.7557 74.3429 58.7762 74.636 58.7863C76.149 60.3917 77.3731 62.2979 78.8466 63.9481C78.9488 62.2489 78.8632 60.49 78.8466 58.7867L79.9766 58.7592C79.9545 61.2067 80.049 63.6675 79.9638 66.1129C79.7604 66.1117 79.5238 66.1282 79.3237 66.0948C78.8135 66.0097 75.4108 61.4853 74.8552 60.7593C74.7668 62.5317 74.8443 64.3464 74.8356 66.1239L73.7209 66.1022Z" fill="black"/>
<path d="M0 66.09C0.0466395 63.6569 0.0108325 61.2182 0.00812443 58.7847C1.98083 58.7679 4.53412 58.4092 6.10662 59.8813C6.81178 60.5415 7.09372 61.4286 7.10892 62.374C7.12637 63.4562 6.77522 64.2515 6.035 65.0204C4.4279 66.4432 1.99437 66.107 0 66.09ZM1.13304 59.696C1.13379 61.528 1.11318 63.3628 1.13605 65.1945C2.64506 65.2142 4.01235 65.3982 5.23958 64.3446C5.78601 63.7569 5.9989 63.0393 5.96384 62.2428C5.9342 61.5698 5.72056 60.9375 5.21626 60.4729C4.15363 59.4941 2.46934 59.693 1.13304 59.696Z" fill="black"/>
<path d="M9.0348 66.0985C8.96545 63.6789 9.17863 61.2027 8.99072 58.7942C9.38204 58.7862 9.77547 58.7955 10.1668 58.7974C10.0929 61.2217 10.1411 63.6588 10.1478 66.0849L9.0348 66.0985Z" fill="black"/>
<path d="M37.6069 66.1094C37.5127 63.6733 37.6796 61.2296 37.5552 58.7921C38.7078 58.765 39.8893 58.7134 41.0394 58.7825C41.772 58.8264 42.6685 58.9826 43.164 59.574C43.4948 59.9689 43.5678 60.5298 43.4919 61.0268C43.3947 61.6632 42.9011 61.9784 42.414 62.3185C42.8888 62.5329 43.3753 62.7624 43.6755 63.209C44.031 63.7385 43.951 64.3191 43.8447 64.9087C43.7527 65.0704 43.6646 65.218 43.5339 65.3522C42.4553 66.4583 39.0857 66.11 37.6069 66.1094ZM38.7124 59.6417L38.7105 61.9248C39.7183 61.9495 41.0632 62.133 41.988 61.6764C42.2291 61.3854 42.4743 60.9589 42.4323 60.5656C42.407 60.3275 42.2421 60.1466 42.0494 60.0204C41.2027 59.4654 39.6833 59.636 38.7124 59.6417ZM38.7063 62.7788C38.7016 63.5905 38.7036 64.4022 38.7123 65.2139C39.8565 65.2198 41.4111 65.4632 42.4283 64.9015C42.6815 64.607 42.9082 64.2216 42.8804 63.816C42.864 63.5751 42.7234 63.3912 42.536 63.2531C41.5588 62.5338 39.8607 62.8224 38.7063 62.7788Z" fill="black"/>
<path d="M53.3411 59.7004L53.3472 58.7637C55.3597 58.8187 57.3841 58.7769 59.398 58.7792L59.3884 59.7046L56.9802 59.7026L56.9791 63.5966L56.977 66.0954L55.8412 66.1095L55.8876 59.715L53.3411 59.7004Z" fill="black"/>
<path d="M60.9507 66.1055L60.9421 58.799L62.0816 58.7637C62.0676 61.2088 62.066 63.6538 62.0767 66.0989L60.9507 66.1055Z" fill="black"/>
</svg>

<svg width="80" height="67" fill="none" xmlns="http://www.w3.org/2000/svg"><path d="M.065.047L31.714.042l10.3.002c1.898 0 3.81.047 5.706-.023L47.858 0l.052.074c-.226.375-.675.718-.986 1.036l-3.12 3.127c-2.244 2.234-4.422 4.542-6.679 6.758-2.766.076-5.546.02-8.314.02l-15.165-.003c.065 3.04-.026 6.087.01 9.128 5.979.104 11.977.019 17.957.002.022 3.545.023 7.09.003 10.636-2.103-.156-4.31-.013-6.427-.017-3.837-.008-7.688-.081-11.523.04-.008 3.229.076 6.497-.035 9.723 1.615.064 3.258-.03 4.876-.04 1.463-.009 2.925.066 4.388.053 1.738-.016 10.872-.305 11.786.09.738.318 1.452 1.098 2.098 1.587 3.09 2.342 6.123 4.768 9.187 7.146a92.793 92.793 0 012.523 2c-1.749-.154-3.598-.043-5.356-.044l-10.116-.007-32.95.02L.064.047z" fill="#fff"/><path d="M66.439 19.016c.1-6.337-.084-12.68.023-19.016 1.344.214 3.04.064 4.422.064L79.99.058l-.01 51.302c-1.578-.096-3.194-.03-4.779-.032l-8.748.024c-.084-6.992-.07-14.013.012-21.004H50.128c.044 3.7.01 7.405.01 11.106l.004 5.914c-4.45-3.593-9.035-7.042-13.545-10.56.004-6.55-.104-13.118.01-19.665 1.193-1.264 2.466-2.472 3.697-3.701 3.282-3.28 6.611-6.527 9.843-9.856-.125 3.629-.011 7.299-.009 10.932.001 1.466.11 3.033-.05 4.487l16.35.012z" fill="#fff"/><path d="M12.397 64.456c.876.577 1.711.854 2.773.798.504-.027.894-.157 1.226-.552.16-.19.343-.45.284-.712-.2-.877-2.964-1.216-3.711-1.672-.399-.243-.72-.599-.824-1.063-.115-.513.037-1.16.336-1.588.475-.678 1.337-.87 2.104-.997.985-.06 1.834.165 2.755.495-.131.327-.235.67-.35 1.002-.487-.306-.891-.413-1.453-.49-.647-.09-1.308-.136-1.847.295-.27.215-.513.448-.555.804.25 1.081 3.003 1.297 3.911 2.003.36.28.633.666.674 1.128.046.524-.222 1.168-.576 1.547-.608.651-1.676.727-2.511.731-1.015-.023-1.787-.322-2.695-.75l.459-.98zm55.912 1.729c-1.064.02-2.026-.097-2.903-.775a3.604 3.604 0 01-.532-.508 3.533 3.533 0 01-.328-.444 3.606 3.606 0 01-.389-.833 3.847 3.847 0 01-.154-.72c-.121-1.029.176-2.105.847-2.901.728-.866 1.71-1.213 2.8-1.323.79-.066 1.741.17 2.409.583a3.571 3.571 0 011.405 1.61 3.572 3.572 0 01.261.876 3.8 3.8 0 01.021 1.164 3.877 3.877 0 01-.612 1.625c-.7 1.035-1.65 1.424-2.825 1.646zm-.7-6.535c-.817.115-1.467.397-1.967 1.09a2.96 2.96 0 00-.522 1.361 2.885 2.885 0 00.03.88 2.77 2.77 0 001.128 1.785c.618.427 1.32.519 2.052.44.763-.153 1.423-.553 1.843-1.219a2.882 2.882 0 00.313-.672 2.983 2.983 0 00.06-1.613 2.704 2.704 0 00-.457-.976 2.76 2.76 0 00-.8-.722c-.49-.286-1.117-.398-1.68-.354zm-49.02.05c-.012-.268-.048-.548.036-.807.208-.155.37-.12.626-.131 1.808.004 3.62.036 5.43.004l-.062.94-2.43-.01.004 4.202.002 2.202-1.122.001c.01-2.134.01-4.269-.003-6.403l-2.481.003zm7.532-.926l2.779-.012c.402.007.83.02 1.221.12.712.181 1.326.597 1.676 1.253a2.552 2.552 0 01.182 1.918c-.242.794-.777 1.219-1.479 1.584.513.868 1.103 1.677 1.718 2.474l-1.157-.026c-.338-.397-.637-.837-.946-1.258l-.735-.98c-.7.03-1.406.003-2.107-.005l-.025 2.26-1.12-.002-.007-7.326zm1.325.883l-.148.079c-.17.997-.045 2.188-.037 3.208 1.038.024 2.197.191 3.115-.382.398-.406.594-.708.58-1.291-.009-.422-.12-.818-.445-1.105-.726-.639-2.145-.501-3.065-.51zm6.597 6.449c0-.876-.086-6.991.041-7.352l1.052.037c0 .889.137 7.017-.076 7.312l-1.017.003zm11.701-7.318l1.001-.017c.166.044.115.465.117.604.02 1.279-.332 4.354.57 5.306.385.409.925.542 1.47.55.513.008 1.014-.133 1.376-.513.956-1.003.602-4.53.587-5.964l1.126.046.007 1.636c-.021 1.467.301 3.652-.751 4.837-.565.635-1.433.905-2.263.924-.876.02-1.795-.231-2.43-.86a2.426 2.426 0 01-.622-1.037c-.39-1.321-.192-4.057-.188-5.512zm27.976 7.314c-.053-1.499-.015-3.013-.015-4.513 0-.92-.078-1.923.048-2.831.293-.002.59.018.883.028 1.513 1.606 2.737 3.512 4.21 5.162.103-1.7.017-3.458 0-5.161l1.13-.028c-.022 2.448.073 4.908-.012 7.354-.204-.001-.44.015-.64-.018-.51-.085-3.913-4.61-4.469-5.336-.088 1.773-.01 3.587-.02 5.365l-1.114-.022zM0 66.09c.047-2.433.01-4.872.008-7.305 1.973-.017 4.526-.376 6.099 1.096.705.66.987 1.548 1.002 2.493.017 1.082-.334 1.877-1.074 2.646-1.607 1.423-4.04 1.087-6.035 1.07zm1.133-6.394c0 1.832-.02 3.667.003 5.499 1.51.02 2.876.203 4.104-.85.546-.588.759-1.306.724-2.102-.03-.673-.243-1.306-.748-1.77-1.062-.979-2.747-.78-4.083-.777zm7.902 6.403c-.07-2.42.144-4.896-.044-7.305.391-.008.784.002 1.176.003-.074 2.425-.026 4.862-.02 7.288l-1.112.014zm28.572.011c-.094-2.437.073-4.88-.052-7.318 1.153-.027 2.334-.079 3.484-.01.733.044 1.63.2 2.125.792.33.395.404.956.328 1.453-.097.636-.59.951-1.078 1.291.475.215.961.444 1.261.891.356.53.276 1.11.17 1.7-.092.161-.18.309-.311.443-1.079 1.106-4.448.758-5.927.757zm1.105-6.468l-.002 2.283c1.008.025 2.353.208 3.278-.249.241-.29.486-.717.444-1.11-.025-.239-.19-.42-.383-.546-.846-.555-2.366-.384-3.337-.378zm-.006 3.137c-.004.811-.002 1.623.006 2.435 1.144.006 2.7.25 3.716-.313.254-.294.48-.68.452-1.085-.016-.24-.157-.425-.344-.563-.977-.72-2.675-.43-3.83-.474zM53.341 59.7l.006-.936c2.013.055 4.037.013 6.051.015l-.01.926-2.408-.002v3.894l-.003 2.498-1.136.014.047-6.394-2.547-.015zm7.609 6.406l-.008-7.307 1.14-.035a726.12 726.12 0 00-.005 7.335l-1.126.007z" fill="#000"/></svg>
